X:1
T:Concerto a flauto dolce, au luth
T:Concerto a flauto dolce, au luth  1. Adagio
T:Adaptation from the original score for Baroque lute and treble recorder
T:Ernst Gottlieb Baron (1696 - 1760)
C:Ernst Gottlieb Baron (1696 - 1760)
%%score 1 2 3 4
L:1/8
Q:1/4=40
M:4/4
K:F
V:1 treble nm="Alt-blokfluit" snm="A. Blf."
V:2 treble nm="Alt-blokfluit" snm="A. Blf."
V:3 bass+8 nm="Bas-blokfluit" snm="Bs. Blf."
V:4 bass nm="Viola da gamba" snm="Vla. d. g."
V:1
 A2 A/d/^c/d/ eA z f/e/ | d/f/c/f/ B>A A2 A/c/B/A/ | G(e e/)G/A/G/ FA d/f/e/d/ | %3
 ^c/g/f/e/ Te>d d2 z b | ^c2 z c d/e/f/4g/4a/ g/a/f/g/ | eA a2- a g2 f | %6
 ef/e/ de/d/ ^cA/=B/ c/A/f | ef/e/ de/d/ =c2 z ^g- | g^f/e/ a2 a2 T^g>a | %9
 ac'/b/ a/g/^f/a/ bg/a/ b2- | b/g/a/b/ c/b/a/g/ a/g/ a2 g | f/g/e/f/ d/f/e/d/ ^c2 z2 | %12
 z d'bg z c'af | z bge d/^c/d d/c/d | d/=B/!fermata!^c z/ e/d/^c/ d/c/d/e/ Tc>d | d4 z2 e2 | %16
 d4 !fermata!^c4 |] %17
V:2
 d2 dd A2 A2 | fffe f3 f | g2 G2 d3 B | gf A>d d/A/d/A/ d/f/e/d/ | %4
 e/A/e/A/ e/g/f/e/ f/A/d/f/ e/f/d/e/ | ^c2 z2 z4 | z4 z ^c/d/ ea | g/A/a/g/ f/A/g/f/ e/A/f/e/ d>d | %8
 =B/d/e/d/ c/B/c/A/ B/d/c/B/ TB>A | A2 ^f2 g3 G | BBBB FF A2 | fede eeea | %12
 b/g/a/b/ g/b/a/g/ a/f/g/a/ f/a/g/f/ | g/e/f/g/ e/g/f/e/ f/e/f f/e/f | %14
 f/d/!fermata!e z/ g/f/e/ f/e/f/g/ Te>d | d4 z2 a2 | a2 g2 !fermata!a4 |] %17
V:3
 F,2 F,F, E,2 E,2 | D,C,B,,G,, C,3 C, | B,,2 A,,2 A,,3 B,, | E,D, ^C,>F, A,,2 z2 | z8 | %5
 z2 z A, B,/C/B,/C/ A,/B,/A,/B,/ | G,A,/G,/ F,G,/F,/ E,4 | z8 | z8 | z2 A,2 D,3 B,, | %10
 G,,G,,G,,G,, C,C, C,2 | D,^C,F,,_B,, A,,4 | z2 C,2 z2 B,,2 | z2 A,,2 A,,4 | !fermata!A,,2 z2 z4 | %15
 A,,4 z2 A,,2 | D,2 D,2 !fermata!E,4 |] %17
V:4
 !2!D,!0!E,!1!F,!2!D, !1!^C,!4!=B,,!1!C,!2!A,, | !3!_B,,!2!A,,!3!G,!0!=C, !1!F,!0!E,!1!F,!2!D, | %2
 !0!E,!2!D,!1!^C,!2!A,, !2!D,!0!E,!1!F,!3!G, | !2!A,,!2!D, !2!A,,2 !2!D,!0!E,!1!F,!3!G, | %4
 !2!A,,3 !2!A,, !2!D,3 !3!G, | !2!A,,3 !1!F, !3!G,!0!E,!1!^C,!2!D, | !2!A,,4 !2!A,,4 | %7
 !2!A,,2 !2!A,,2 !2!A,,2 z !4!=B,, | !0!E,2 z !2!A,, !2!D,!0!A,/!2!D,/ !0!E,2 | %9
 !2!A,,2 !2!D,2 !3!G,3 G, | !0!E,E,E,E, !1!F,F,F,!0!E, | !2!D,!2!A,,!3!B,,!3!G, !2!A,,A,, !2!A,,2 | %12
 !3!G,2 !0!E,2 !1!F,2 !2!D,2 | !0!E,2 !1!^C,2 !2!D,2 !0!=C,2 | %14
 !fermata!!2!A,,2 z !2!A,, !2!D,!3!G, !2!A,,2 | !2!D,4 z2 !0!C,2 | %16
 !3!B,,2 !3!B,,2 !fermata!!2!A,,4 |] %17

